svg/emoji_u1fa86.svg

<?xml version="1.0" encoding="utf-8"?>
<!-- Generator: Adobe Illustrator 24.1.2, SVG Export Plug-In . SVG Version: 6.00 Build 0)  -->
<svg version="1.1" id="Layer_3" xmlns="http://www.w3.org/2000/svg" xmlns:xlink="http://www.w3.org/1999/xlink" x="0" y="0"
	 viewBox="0 0 128 128" style="enable-background:new 0 0 128 128;" xml:space="preserve">
<g>
	<g>
		<g>
			<g>
				<linearGradient id="SVGID_1_" gradientUnits="userSpaceOnUse" x1="64" y1="81.4601" x2="64" y2="49.3987">
					<stop  offset="0.0952" style="stop-color:#242322"/>
					<stop  offset="0.8607" style="stop-color:#6D4C41"/>
				</linearGradient>
				<ellipse style="fill:url(#SVGID_1_);" cx="64" cy="62.44" rx="48.88" ry="23.93"/>
			</g>
			<path style="fill:#C2362B;" d="M25.19,93.01c-2.26,2.71-3.52,5.7-3.52,8.84C21.68,114.08,40.63,124,64,124
				s42.32-9.92,42.32-22.15c0-3.14-1.26-6.13-3.52-8.84H25.19z"/>
			<path style="fill:#F54536;" d="M64,86.69c-46.37-3.16-50.67-24.96-50.67-24.96c0,16.41,14.67,40.12,14.67,40.12
				S39.35,116.02,64,116.02s36.01-14.17,36.01-14.17s14.67-23.71,14.67-40.12C114.67,61.73,110.37,83.54,64,86.69z"/>
			<path style="fill:#C2362B;" d="M64,76.46c-35.86-2.24-37.29-17.74-37.29-17.74c0,11.66,9.44,28.51,9.44,28.51S44.93,97.3,64,97.3
				s27.85-10.07,27.85-10.07s9.44-16.85,9.44-28.51C101.29,58.73,99.86,74.22,64,76.46z"/>
			<path style="fill:#E0E0E0;" d="M63.64,75.58c-16.01,0-25.69-6.12-25.69-6.12C41.04,84.88,51.53,97.3,63.99,97.3
				c12.48,0,22.98-12.46,26.06-27.93C90.05,69.38,79.66,75.58,63.64,75.58z"/>
			<path style="fill:#FAFAFA;" d="M63.56,86.69c-19.57,0-31.39-6.76-31.39-6.76c3.78,17.02,16.59,27.57,31.81,27.57
				c15.25,0,28.08-10.59,31.84-27.66C95.82,79.85,83.13,86.69,63.56,86.69z"/>
			<g>
				<g>
					<path style="fill:#F2B87E;" d="M64,40.42c12.92,0,25,2.54,34.03,7.15c8.06,4.12,12.68,9.51,12.68,14.78
						s-4.62,10.66-12.68,14.78C89,81.75,76.92,84.29,64,84.29s-25-2.54-34.03-7.15c-8.06-4.12-12.68-9.51-12.68-14.78
						s4.62-10.66,12.68-14.78C39,42.96,51.08,40.42,64,40.42 M64,36.45c-27.99,0-50.67,11.6-50.67,25.9S36.01,88.25,64,88.25
						s50.67-11.6,50.67-25.9S91.99,36.45,64,36.45L64,36.45z"/>
				</g>
			</g>
			<g>
				<path style="fill:#E89B9B;" d="M48.42,117.09c4.03,0.61,8,1.07,11.97,1.23c3.97,0.14,7.93,0.03,11.84-0.47
					c0.98-0.14,1.96-0.23,2.93-0.4c0.97-0.19,1.94-0.34,2.91-0.55c1.94-0.39,3.84-0.9,5.74-1.46c3.79-1.16,7.47-2.67,11.07-4.58
					c-2.97,2.79-6.59,4.91-10.39,6.47c-1.9,0.81-3.88,1.4-5.87,1.95c-2,0.5-4.04,0.86-6.08,1.14c-4.1,0.47-8.25,0.47-12.32-0.09
					C56.14,119.78,52.14,118.73,48.42,117.09z"/>
			</g>
		</g>
		<g>
			<g>
				<g>
					<path style="fill:#F54536;" d="M64,73.9c10.58,0,19.13-1.94,24.84-4.55c0.08-2.12,0.07-5.65-0.06-7.3
						c-0.64-8.07-2.78-12.89-4.65-16.88c-5.17-11.02-1.85-15.76-1.85-21.97C82.28,13.14,74.13,4,64.07,4
						c-10.06,0-18.21,9.14-18.21,19.2c0,6.21,3.32,10.95-1.85,21.97c-1.87,3.98-3.62,8.81-4.65,16.88
						c-0.21,1.64-0.28,5.18-0.24,7.29C44.83,71.96,53.4,73.9,64,73.9z"/>
				</g>
			</g>
			<path style="fill:#BF1A1A;" d="M88.88,69.35c0.03-2.2,0-6.02-0.1-7.3c-0.13-1.64-0.32-3.13-0.56-4.52
				C82.43,65.65,73.73,69.93,64,69.93c-9.6,0-18.2-4.15-23.99-12.09c-0.24,1.3-0.46,2.7-0.65,4.21c-0.16,1.27-0.24,5.1-0.25,7.29
				C44.87,71.95,53.38,73.9,64,73.9C74.62,73.9,83.12,71.95,88.88,69.35z"/>
			<path style="fill:#FFFFFF;" d="M64,73.97c6.32,0,11.91-0.85,16.61-1.84c0,0,0.51-5.38,0.51-7.49c0-13.64-7.4-24.7-16.52-24.7
				c-9.12,0-16.52,11.06-16.52,24.7c0,2.2,0.55,7.77,0.55,7.77C53.07,73.26,58.23,73.97,64,73.97z"/>
			<path style="fill:#C7C7C7;" d="M80.74,72.06c0.19-1.91,0.33-5.84,0.38-7.43c0,0-6.7,4.74-17.12,4.74s-15.9-3.91-15.9-3.91
				c0.07,1.41,0.23,5.16,0.41,6.88c4.46,0.96,9.66,1.62,15.49,1.62C70.39,73.97,76.02,73.19,80.74,72.06z"/>
			<path style="fill:#00897B;" d="M84.61,46.2c-0.16-0.35-0.32-0.7-0.47-1.03c-5.17-11.02-1.85-15.76-1.85-21.97
				C83.15,12.24,74.13,4,64.07,4c-10.06,0-19.11,7.96-18.21,19.2c0,6.21,3.32,10.95-1.85,21.97c-0.16,0.34-0.32,0.7-0.47,1.05
				c7.39-1.28,13.31-6.2,20.89-6.2S77.27,44.86,84.61,46.2z"/>
			<g>
				<path style="fill:#00897B;" d="M62.38,49.38c2.56-3.91,2.2-9.58,2.2-9.58s-4.62,1.07-7.18,4.98c-2.56,3.91-2.09,9.17-2.09,9.17
					S59.82,53.29,62.38,49.38z"/>
				<path style="fill:#00897B;" d="M73.43,54.02c0,0,0.55-5.26-1.96-9.2c-2.5-3.94-7.11-5.08-7.11-5.08s-0.44,5.66,2.06,9.61
					C68.93,53.29,73.43,54.02,73.43,54.02z"/>
			</g>
			
				<ellipse transform="matrix(0.9998 -0.0187 0.0187 0.9998 -0.4053 1.1994)" style="fill:#FFCA28;" cx="64" cy="22.3" rx="12.62" ry="13.19"/>
			<g>
				<ellipse style="fill:#3E2723;" cx="58.5" cy="24.52" rx="2.04" ry="2.84"/>
				<ellipse style="fill:#3E2723;" cx="69.5" cy="24.52" rx="2.04" ry="2.84"/>
			</g>
			<path style="fill:#3E2723;" d="M76.61,22.4c0-0.11,0.01-0.23,0.01-0.34c-0.14-7.28-5.9-13.08-12.87-12.95
				c-6.93,0.13-12.44,6.07-12.37,13.29c0.94-0.37,3.88-1.66,6.78-4.55c3.51-3.49,5.78-6.79,5.83-6.72c0.05-0.07,2.32,3.23,5.83,6.72
				C72.73,20.74,75.66,22.03,76.61,22.4z"/>
		</g>
		<path style="fill:#F2B87E;" d="M84.75,46.5c0.65,1.43,1.31,3.01,1.91,4.79c6.85,2.59,10.67,6.1,10.67,8.99
			c0,5.27-12.68,12.62-33.32,12.62s-33.32-7.35-33.32-12.62c0-2.93,3.93-6.51,10.97-9.11c0.56-1.76,1.16-3.31,1.78-4.73
			c-10.07,2.97-16.72,8.06-16.72,13.83c0,9.16,16.69,16.59,37.29,16.59s37.29-7.43,37.29-16.59C101.29,54.54,94.72,49.48,84.75,46.5
			z"/>
	</g>
</g>
</svg>

<?xml version="1.0" encoding="UTF-8" standalone="no"?>
<!DOCTYPE svg PUBLIC "-//W3C//DTD SVG 1.1//EN" "http://www.w3.org/Graphics/SVG/1.1/DTD/svg11.dtd">
<svg width="100%" height="100%" viewBox="0 0 128 128" version="1.1" xmlns="http://www.w3.org/2000/svg" xmlns:xlink="http://www.w3.org/1999/xlink" xml:space="preserve" xmlns:serif="http://www.serif.com/" style="fill-rule:evenodd;clip-rule:evenodd;stroke-linejoin:round;stroke-miterlimit:2;">
    <g>
        <g>
            <g>
                <g>
                    <ellipse cx="64" cy="62.44" rx="48.88" ry="23.93" style="fill:rgb(191,63,12);"/>
                    <ellipse cx="64" cy="62.44" rx="48.88" ry="23.93" style="fill-opacity:0.39;"/>
                </g>
                <path d="M25.19,93.01C22.93,95.72 21.67,98.71 21.67,101.85C21.68,114.08 40.63,124 64,124C87.37,124 106.32,114.08 106.32,101.85C106.32,98.71 105.06,95.72 102.8,93.01L25.19,93.01Z" style="fill:rgb(194,54,43);fill-rule:nonzero;"/>
                <path d="M64,86.69C17.63,83.53 13.33,61.73 13.33,61.73C13.33,78.14 28,101.85 28,101.85C28,101.85 39.35,116.02 64,116.02C88.65,116.02 100.01,101.85 100.01,101.85C100.01,101.85 114.68,78.14 114.68,61.73C114.67,61.73 110.37,83.54 64,86.69Z" style="fill:rgb(245,69,54);fill-rule:nonzero;"/>
                <path d="M64,76.46C28.14,74.22 26.71,58.72 26.71,58.72C26.71,70.38 36.15,87.23 36.15,87.23C36.15,87.23 44.93,97.3 64,97.3C83.07,97.3 91.85,87.23 91.85,87.23C91.85,87.23 101.29,70.38 101.29,58.72C101.29,58.73 99.86,74.22 64,76.46Z" style="fill:rgb(194,54,43);fill-rule:nonzero;"/>
                <path d="M63.64,75.58C47.63,75.58 37.95,69.46 37.95,69.46C41.04,84.88 51.53,97.3 63.99,97.3C76.47,97.3 86.97,84.84 90.05,69.37C90.05,69.38 79.66,75.58 63.64,75.58Z" style="fill:rgb(224,224,224);fill-rule:nonzero;"/>
                <path d="M63.56,86.69C43.99,86.69 32.17,79.93 32.17,79.93C35.95,96.95 48.76,107.5 63.98,107.5C79.23,107.5 92.06,96.91 95.82,79.84C95.82,79.85 83.13,86.69 63.56,86.69Z" style="fill:rgb(250,250,250);fill-rule:nonzero;"/>
                <g>
                    <g>
                        <path d="M64,40.42C76.92,40.42 89,42.96 98.03,47.57C106.09,51.69 110.71,57.08 110.71,62.35C110.71,67.62 106.09,73.01 98.03,77.13C89,81.75 76.92,84.29 64,84.29C51.08,84.29 39,81.75 29.97,77.14C21.91,73.02 17.29,67.63 17.29,62.36C17.29,57.09 21.91,51.7 29.97,47.58C39,42.96 51.08,40.42 64,40.42M64,36.45C36.01,36.45 13.33,48.05 13.33,62.35C13.33,76.65 36.01,88.25 64,88.25C91.99,88.25 114.67,76.65 114.67,62.35C114.67,48.05 91.99,36.45 64,36.45Z" style="fill:rgb(242,184,126);fill-rule:nonzero;"/>
                    </g>
                </g>
            </g>
            <g>
                <g>
                    <g>
                        <path d="M64,73.9C74.58,73.9 83.13,71.96 88.84,69.35C88.92,67.23 88.91,63.7 88.78,62.05C88.14,53.98 86,49.16 84.13,45.17C78.96,34.15 82.28,29.41 82.28,23.2C82.28,13.14 74.13,4 64.07,4C54.01,4 45.86,13.14 45.86,23.2C45.86,29.41 49.18,34.15 44.01,45.17C42.14,49.15 40.39,53.98 39.36,62.05C39.15,63.69 39.08,67.23 39.12,69.34C44.83,71.96 53.4,73.9 64,73.9Z" style="fill:rgb(245,69,54);fill-rule:nonzero;"/>
                    </g>
                </g>
                <path d="M64,73.97C70.32,73.97 75.91,73.12 80.61,72.13C80.61,72.13 81.12,66.75 81.12,64.64C81.12,51 73.72,39.94 64.6,39.94C55.48,39.94 48.08,51 48.08,64.64C48.08,66.84 48.63,72.41 48.63,72.41C53.07,73.26 58.23,73.97 64,73.97Z" style="fill:white;fill-rule:nonzero;"/>
                <path d="M84.61,46.2C84.45,45.85 84.29,45.5 84.14,45.17C78.97,34.15 82.29,29.41 82.29,23.2C83.15,12.24 74.13,4 64.07,4C54.01,4 44.96,11.96 45.86,23.2C45.86,29.41 49.18,34.15 44.01,45.17C43.85,45.51 43.69,45.87 43.54,46.22C50.93,44.94 56.85,40.02 64.43,40.02C72.01,40.02 77.27,44.86 84.61,46.2Z" style="fill:rgb(0,137,123);fill-rule:nonzero;"/>
                <g>
                    <path d="M62.38,49.38C64.94,45.47 64.58,39.8 64.58,39.8C64.58,39.8 59.96,40.87 57.4,44.78C54.84,48.69 55.31,53.95 55.31,53.95C55.31,53.95 59.82,53.29 62.38,49.38Z" style="fill:rgb(0,137,123);fill-rule:nonzero;"/>
                    <path d="M73.43,54.02C73.43,54.02 73.98,48.76 71.47,44.82C68.97,40.88 64.36,39.74 64.36,39.74C64.36,39.74 63.92,45.4 66.42,49.35C68.93,53.29 73.43,54.02 73.43,54.02Z" style="fill:rgb(0,137,123);fill-rule:nonzero;"/>
                </g>
                <g transform="matrix(0.9998,-0.0187,0.0187,0.9998,-0.4053,1.1994)">
                    <ellipse cx="64" cy="22.3" rx="12.62" ry="13.19" style="fill:rgb(255,202,40);"/>
                </g>
                <g>
                    <ellipse cx="58.5" cy="24.52" rx="2.04" ry="2.84" style="fill:rgb(62,39,35);"/>
                    <ellipse cx="69.5" cy="24.52" rx="2.04" ry="2.84" style="fill:rgb(62,39,35);"/>
                </g>
                <path d="M76.61,22.4C76.61,22.29 76.62,22.17 76.62,22.06C76.48,14.78 70.72,8.98 63.75,9.11C56.82,9.24 51.31,15.18 51.38,22.4C52.32,22.03 55.26,20.74 58.16,17.85C61.67,14.36 63.94,11.06 63.99,11.13C64.04,11.06 66.31,14.36 69.82,17.85C72.73,20.74 75.66,22.03 76.61,22.4Z" style="fill:rgb(62,39,35);fill-rule:nonzero;"/>
            </g>
            <path d="M84.75,46.5C85.4,47.93 86.06,49.51 86.66,51.29C93.51,53.88 97.33,57.39 97.33,60.28C97.33,65.55 84.65,72.9 64.01,72.9C43.37,72.9 30.69,65.55 30.69,60.28C30.69,57.35 34.62,53.77 41.66,51.17C42.22,49.41 42.82,47.86 43.44,46.44C33.37,49.41 26.72,54.5 26.72,60.27C26.72,69.43 43.41,76.86 64.01,76.86C84.61,76.86 101.3,69.43 101.3,60.27C101.29,54.54 94.72,49.48 84.75,46.5Z" style="fill:rgb(242,184,126);fill-rule:nonzero;"/>
        </g>
    </g>
</svg>
